Ferrey/LUTs/B&W.cube
LUT_3D_SIZE 33
0.0000000000 0.0000000000 0.0000000000
0.0039215686 0.0039215686 0.0039215686
0.0078431373 0.0078431373 0.0078431373
0.0117647059 0.0117647059 0.0117647059
0.0117647059 0.0117647059 0.0117647059
0.0196078431 0.0196078431 0.0196078431
0.0235294118 0.0235294118 0.0235294118
0.0352941176 0.0352941176 0.0352941176
0.0431372549 0.0431372549 0.0431372549
0.0470588235 0.0470588235 0.0470588235
0.0509803922 0.0509803922 0.0509803922
0.0588235294 0.0588235294 0.0588235294
0.0666666667 0.0666666667 0.0666666667
0.0745098039 0.0745098039 0.0745098039
0.0823529412 0.0823529412 0.0823529412
0.0862745098 0.0862745098 0.0862745098
0.0980392157 0.0980392157 0.0980392157
0.1019607843 0.1019607843 0.1019607843
0.1098039216 0.1098039216 0.1098039216
0.1215686275 0.1215686275 0.1215686275
0.1254901961 0.1254901961 0.1254901961
0.1333333333 0.1333333333 0.1333333333
0.1411764706 0.1411764706 0.1411764706
0.1529411765 0.1529411765 0.1529411765
0.1607843137 0.1607843137 0.1607843137
0.1725490196 0.1725490196 0.1725490196
0.1882352941 0.1882352941 0.1882352941
0.1960784314 0.1960784314 0.1960784314
0.2039215686 0.2039215686 0.2039215686
0.2156862745 0.2156862745 0.2156862745
0.2235294118 0.2235294118 0.2235294118
0.2274509804 0.2274509804 0.2274509804
0.2352941176 0.2352941176 0.2352941176
0.0117647059 0.0117647059 0.0117647059
0.0117647059 0.0117647059 0.0117647059
0.0117647059 0.0117647059 0.0117647059
0.0196078431 0.0196078431 0.0196078431
0.0235294118 0.0235294118 0.0235294118
0.0274509804 0.0274509804 0.0274509804
0.0352941176 0.0352941176 0.0352941176
0.0392156863 0.0392156863 0.0392156863
0.0470588235 0.0470588235 0.0470588235
0.0509803922 0.0509803922 0.0509803922
0.0588235294 0.0588235294 0.0588235294
0.0666666667 0.0666666667 0.0666666667
0.0745098039 0.0745098039 0.0745098039
0.0784313725 0.0784313725 0.0784313725
0.0862745098 0.0862745098 0.0862745098
0.0901960784 0.0901960784 0.0901960784
0.0980392157 0.0980392157 0.0980392157
0.1058823529 0.1058823529 0.1058823529
0.1137254902 0.1137254902 0.1137254902
0.1254901961 0.1254901961 0.1254901961
0.1294117647 0.1294117647 0.1294117647
0.1372549020 0.1372549020 0.1372549020
0.1450980392 0.1450980392 0.1450980392
0.1568627451 0.1568627451 0.1568627451
0.1647058824 0.1647058824 0.1647058824
0.1764705882 0.1764705882 0.1764705882
0.1843137255 0.1843137255 0.1843137255
0.2000000000 0.2000000000 0.2000000000
0.2039215686 0.2039215686 0.2039215686
0.2196078431 0.2196078431 0.2196078431
0.2235294118 0.2235294118 0.2235294118
0.2313725490 0.2313725490 0.2313725490
0.2392156863 0.2392156863 0.2392156863
0.0156862745 0.0156862745 0.0156862745
0.0196078431 0.0196078431 0.0196078431
0.0196078431 0.0196078431 0.0196078431
0.0274509804 0.0274509804 0.0274509804
0.0274509804 0.0274509804 0.0274509804
0.0352941176 0.0352941176 0.0352941176
0.0392156863 0.0392156863 0.0392156863
0.0470588235 0.0470588235 0.0470588235
0.0509803922 0.0509803922 0.0509803922
0.0627450980 0.0627450980 0.0627450980
0.0666666667 0.0666666667 0.0666666667
0.0705882353 0.0705882353 0.0705882353
0.0784313725 0.0784313725 0.0784313725
0.0823529412 0.0823529412 0.0823529412
0.0901960784 0.0901960784 0.0901960784
0.0941176471 0.0941176471 0.0941176471
0.1019607843 0.1019607843 0.1019607843
0.1098039216 0.1098039216 0.1098039216
0.1176470588 0.1176470588 0.1176470588
0.1294117647 0.1294117647 0.1294117647
0.1333333333 0.1333333333 0.1333333333
0.1411764706 0.1411764706 0.1411764706
0.1490196078 0.1490196078 0.1490196078
0.1607843137 0.1607843137 0.1607843137
0.1686274510 0.1686274510 0.1686274510
0.1803921569 0.1803921569 0.1803921569
0.1921568627 0.1921568627 0.1921568627
0.2039215686 0.2039215686 0.2039215686
0.2117647059 0.2117647059 0.2117647059
0.2235294118 0.2235294118 0.2235294118
0.2313725490 0.2313725490 0.2313725490
0.2352941176 0.2352941176 0.2352941176
0.2431372549 0.2431372549 0.2431372549
0.0235294118 0.0235294118 0.0235294118
0.0274509804 0.0274509804 0.0274509804
0.0274509804 0.0274509804 0.0274509804
0.0352941176 0.0352941176 0.0352941176
0.0392156863 0.0392156863 0.0392156863
0.0431372549 0.0431372549 0.0431372549
0.0470588235 0.0470588235 0.0470588235
0.0549019608 0.0549019608 0.0549019608
0.0588235294 0.0588235294 0.0588235294
0.0627450980 0.0627450980 0.0627450980
0.0705882353 0.0705882353 0.0705882353
0.0745098039 0.0745098039 0.0745098039
0.0823529412 0.0823529412 0.0823529412
0.0901960784 0.0901960784 0.0901960784
0.0941176471 0.0941176471 0.0941176471
0.0980392157 0.0980392157 0.0980392157
0.1098039216 0.1098039216 0.1098039216
0.1176470588 0.1176470588 0.1176470588
0.1215686275 0.1215686275 0.1215686275
0.1333333333 0.1333333333 0.1333333333
0.1372549020 0.1372549020 0.1372549020
0.1490196078 0.1490196078 0.1490196078
0.1607843137 0.1607843137 0.1607843137
0.1647058824 0.1647058824 0.1647058824
0.1725490196 0.1725490196 0.1725490196
0.1843137255 0.1843137255 0.1843137255
0.1921568627 0.1921568627 0.1921568627
0.2078431373 0.2078431373 0.2078431373
0.2196078431 0.2196078431 0.2196078431
0.2274509804 0.2274509804 0.2274509804
0.2392156863 0.2392156863 0.2392156863
0.2392156863 0.2392156863 0.2392156863
0.2509803922 0.2509803922 0.2509803922
0.0392156863 0.0392156863 0.0392156863
0.0392156863 0.0392156863 0.0392156863
0.0431372549 0.0431372549 0.0431372549
0.0431372549 0.0431372549 0.0431372549
0.0470588235 0.0470588235 0.0470588235
0.0509803922 0.0509803922 0.0509803922
0.0549019608 0.0549019608 0.0549019608
0.0627450980 0.0627450980 0.0627450980
0.0666666667 0.0666666667 0.0666666667
0.0705882353 0.0705882353 0.0705882353
0.0784313725 0.0784313725 0.0784313725
0.0823529412 0.0823529412 0.0823529412
0.0901960784 0.0901960784 0.0901960784
0.0941176471 0.0941176471 0.0941176471
0.1019607843 0.1019607843 0.1019607843
0.1058823529 0.1058823529 0.1058823529
0.1176470588 0.1176470588 0.1176470588
0.1215686275 0.1215686275 0.1215686275
0.1294117647 0.1294117647 0.1294117647
0.1372549020 0.1372549020 0.1372549020
0.1450980392 0.1450980392 0.1450980392
0.1529411765 0.1529411765 0.1529411765
0.1607843137 0.1607843137 0.1607843137
0.1725490196 0.1725490196 0.1725490196
0.1803921569 0.1803921569 0.1803921569
0.1882352941 0.1882352941 0.1882352941
0.2000000000 0.2000000000 0.2000000000
0.2117647059 0.2117647059 0.2117647059
0.2235294118 0.2235294118 0.2235294118
0.2352941176 0.2352941176 0.2352941176
0.2431372549 0.2431372549 0.2431372549
0.2470588235 0.2470588235 0.2470588235
0.2549019608 0.2549019608 0.2549019608
0.0509803922 0.0509803922 0.0509803922
0.0509803922 0.0509803922 0.0509803922
0.0549019608 0.0549019608 0.0549019608
0.0509803922 0.0509803922 0.0509803922
0.0549019608 0.0549019608 0.0549019608
0.0588235294 0.0588235294 0.0588235294
0.0627450980 0.0627450980 0.0627450980
0.0705882353 0.0705882353 0.0705882353
0.0745098039 0.0745098039 0.0745098039
0.0784313725 0.0784313725 0.0784313725
0.0862745098 0.0862745098 0.0862745098
0.0901960784 0.0901960784 0.0901960784
0.0941176471 0.0941176471 0.0941176471
0.1019607843 0.1019607843 0.1019607843
0.1058823529 0.1058823529 0.1058823529
0.1137254902 0.1137254902 0.1137254902
0.1215686275 0.1215686275 0.1215686275
0.1294117647 0.1294117647 0.1294117647
0.1372549020 0.1372549020 0.1372549020
0.1450980392 0.1450980392 0.1450980392
0.1490196078 0.1490196078 0.1490196078
0.1607843137 0.1607843137 0.1607843137
0.1686274510 0.1686274510 0.1686274510
0.1764705882 0.1764705882 0.1764705882
0.1882352941 0.1882352941 0.1882352941
0.1960784314 0.1960784314 0.1960784314
0.2117647059 0.2117647059 0.2117647059
0.2196078431 0.2196078431 0.2196078431
0.2313725490 0.2313725490 0.2313725490
0.2431372549 0.2431372549 0.2431372549
0.2470588235 0.2470588235 0.2470588235
0.2549019608 0.2549019608 0.2549019608
0.2666666667 0.2666666667 0.2666666667
0.0627450980 0.0627450980 0.0627450980
0.0627450980 0.0627450980 0.0627450980
0.0627450980 0.0627450980 0.0627450980
0.0666666667 0.0666666667 0.0666666667
0.0705882353 0.0705882353 0.0705882353
0.0705882353 0.0705882353 0.0705882353
0.0705882353 0.0705882353 0.0705882353
0.0784313725 0.0784313725 0.0784313725
0.0862745098 0.0862745098 0.0862745098
0.0901960784 0.0901960784 0.0901960784
0.0941176471 0.0941176471 0.0941176471
0.0980392157 0.0980392157 0.0980392157
0.1058823529 0.1058823529 0.1058823529
0.1137254902 0.1137254902 0.1137254902
0.1215686275 0.1215686275 0.1215686275
0.1215686275 0.1215686275 0.1215686275
0.1333333333 0.1333333333 0.1333333333
0.1372549020 0.1372549020 0.1372549020
0.1450980392 0.1450980392 0.1450980392
0.1529411765 0.1529411765 0.1529411765
0.1568627451 0.1568627451 0.1568627451
0.1686274510 0.1686274510 0.1686274510
0.1803921569 0.1803921569 0.1803921569
0.1882352941 0.1882352941 0.1882352941
0.2000000000 0.2000000000 0.2000000000
0.2039215686 0.2039215686 0.2039215686
0.2196078431 0.2196078431 0.2196078431
0.2313725490 0.2313725490 0.2313725490
0.2392156863 0.2392156863 0.2392156863
0.2509803922 0.2509803922 0.2509803922
0.2627450980 0.2627450980 0.2627450980
0.2666666667 0.2666666667 0.2666666667
0.2784313725 0.2784313725 0.2784313725
0.0745098039 0.0745098039 0.0745098039
0.0745098039 0.0745098039 0.0745098039
0.0784313725 0.0784313725 0.0784313725
0.0784313725 0.0784313725 0.0784313725
0.0784313725 0.0784313725 0.0784313725
0.0823529412 0.0823529412 0.0823529412
0.0823529412 0.0823529412 0.0823529412
0.0823529412 0.0823529412 0.0823529412
0.0901960784 0.0901960784 0.0901960784
0.0941176471 0.0941176471 0.0941176471
0.1058823529 0.1058823529 0.1058823529
0.1098039216 0.1098039216 0.1098039216
0.1137254902 0.1137254902 0.1137254902
0.1215686275 0.1215686275 0.1215686275
0.1294117647 0.1294117647 0.1294117647
0.1333333333 0.1333333333 0.1333333333
0.1411764706 0.1411764706 0.1411764706
0.1490196078 0.1490196078 0.1490196078
0.1568627451 0.1568627451 0.1568627451
0.1647058824 0.1647058824 0.1647058824
0.1725490196 0.1725490196 0.1725490196
0.1803921569 0.1803921569 0.1803921569
0.1882352941 0.1882352941 0.1882352941
0.1960784314 0.1960784314 0.1960784314
0.2078431373 0.2078431373 0.2078431373
0.2196078431 0.2196078431 0.2196078431
0.2313725490 0.2313725490 0.2313725490
0.2431372549 0.2431372549 0.2431372549
0.2509803922 0.2509803922 0.2509803922
0.2627450980 0.2627450980 0.2627450980
0.2745098039 0.2745098039 0.2745098039
0.2784313725 0.2784313725 0.2784313725
0.2862745098 0.2862745098 0.2862745098
0.0862745098 0.0862745098 0.0862745098
0.0862745098 0.0862745098 0.0862745098
0.0901960784 0.0901960784 0.0901960784
0.0862745098 0.0862745098 0.0862745098
0.0901960784 0.0901960784 0.0901960784
0.0941176471 0.0941176471 0.0941176471
0.0941176471 0.0941176471 0.0941176471
0.0980392157 0.0980392157 0.0980392157
0.0980392157 0.0980392157 0.0980392157
0.1058823529 0.1058823529 0.1058823529
0.1098039216 0.1098039216 0.1098039216
0.1176470588 0.1176470588 0.1176470588
0.1254901961 0.1254901961 0.1254901961
0.1294117647 0.1294117647 0.1294117647
0.1372549020 0.1372549020 0.1372549020
0.1411764706 0.1411764706 0.1411764706
0.1529411765 0.1529411765 0.1529411765
0.1568627451 0.1568627451 0.1568627451
0.1686274510 0.1686274510 0.1686274510
0.1764705882 0.1764705882 0.1764705882
0.1803921569 0.1803921569 0.1803921569
0.1882352941 0.1882352941 0.1882352941
0.2000000000 0.2000000000 0.2000000000
0.2078431373 0.2078431373 0.2078431373
0.2196078431 0.2196078431 0.2196078431
0.2274509804 0.2274509804 0.2274509804
0.2431372549 0.2431372549 0.2431372549
0.2549019608 0.2549019608 0.2549019608
0.2666666667 0.2666666667 0.2666666667
0.2745098039 0.2745098039 0.2745098039
0.2823529412 0.2823529412 0.2823529412
0.2941176471 0.2941176471 0.2941176471
0.2980392157 0.2980392157 0.2980392157
0.0980392157 0.0980392157 0.0980392157
0.1019607843 0.1019607843 0.1019607843
0.0980392157 0.0980392157 0.0980392157
0.0980392157 0.0980392157 0.0980392157
0.1019607843 0.1019607843 0.1019607843
0.1019607843 0.1019607843 0.1019607843
0.1058823529 0.1058823529 0.1058823529
0.1058823529 0.1058823529 0.1058823529
0.1098039216 0.1098039216 0.1098039216
0.1137254902 0.1137254902 0.1137254902
0.1176470588 0.1176470588 0.1176470588
0.1215686275 0.1215686275 0.1215686275
0.1333333333 0.1333333333 0.1333333333
0.1411764706 0.1411764706 0.1411764706
0.1450980392 0.1450980392 0.1450980392
0.1529411765 0.1529411765 0.1529411765
0.1647058824 0.1647058824 0.1647058824
0.1686274510 0.1686274510 0.1686274510
0.1803921569 0.1803921569 0.1803921569
0.1843137255 0.1843137255 0.1843137255
0.1960784314 0.1960784314 0.1960784314
0.2039215686 0.2039215686 0.2039215686
0.2117647059 0.2117647059 0.2117647059
0.2235294118 0.2235294118 0.2235294118
0.2352941176 0.2352941176 0.2352941176
0.2431372549 0.2431372549 0.2431372549
0.2588235294 0.2588235294 0.2588235294
0.2705882353 0.2705882353 0.2705882353
0.2784313725 0.2784313725 0.2784313725
0.2901960784 0.2901960784 0.2901960784
0.3019607843 0.3019607843 0.3019607843
0.3058823529 0.3058823529 0.3058823529
0.3137254902 0.3137254902 0.3137254902
0.1098039216 0.1098039216 0.1098039216
0.1137254902 0.1137254902 0.1137254902
0.1098039216 0.1098039216 0.1098039216
0.1137254902 0.1137254902 0.1137254902
0.1137254902 0.1137254902 0.1137254902
0.1137254902 0.1137254902 0.1137254902
0.1176470588 0.1176470588 0.1176470588
0.1215686275 0.1215686275 0.1215686275
0.1215686275 0.1215686275 0.1215686275
0.1254901961 0.1254901961 0.1254901961
0.1294117647 0.1294117647 0.1294117647
0.1333333333 0.1333333333 0.1333333333
0.1411764706 0.1411764706 0.1411764706
0.1490196078 0.1490196078 0.1490196078
0.1568627451 0.1568627451 0.1568627451
0.1686274510 0.1686274510 0.1686274510
0.1725490196 0.1725490196 0.1725490196
0.1803921569 0.1803921569 0.1803921569
0.1960784314 0.1960784314 0.1960784314
0.2000000000 0.2000000000 0.2000000000
0.2078431373 0.2078431373 0.2078431373
0.2196078431 0.2196078431 0.2196078431
0.2235294118 0.2235294118 0.2235294118
0.2392156863 0.2392156863 0.2392156863
0.2470588235 0.2470588235 0.2470588235
0.2588235294 0.2588235294 0.2588235294
0.2705882353 0.2705882353 0.2705882353
0.2823529412 0.2823529412 0.2823529412
0.2941176471 0.2941176471 0.2941176471
0.3058823529 0.3058823529 0.3058823529
0.3176470588 0.3176470588 0.3176470588
0.3215686275 0.3215686275 0.3215686275
0.3294117647 0.3294117647 0.3294117647
0.1254901961 0.1254901961 0.1254901961
0.1254901961 0.1254901961 0.1254901961
0.1215686275 0.1215686275 0.1215686275
0.1254901961 0.1254901961 0.1254901961
0.1254901961 0.1254901961 0.1254901961
0.1254901961 0.1254901961 0.1254901961
0.1294117647 0.1294117647 0.1294117647
0.1333333333 0.1333333333 0.1333333333
0.1333333333 0.1333333333 0.1333333333
0.1372549020 0.1372549020 0.1372549020
0.1372549020 0.1372549020 0.1372549020
0.1450980392 0.1450980392 0.1450980392
0.1490196078 0.1490196078 0.1490196078
0.1568627451 0.1568627451 0.1568627451
0.1686274510 0.1686274510 0.1686274510
0.1764705882 0.1764705882 0.1764705882
0.1843137255 0.1843137255 0.1843137255
0.1960784314 0.1960784314 0.1960784314
0.2039215686 0.2039215686 0.2039215686
0.2117647059 0.2117647059 0.2117647059
0.2196078431 0.2196078431 0.2196078431
0.2274509804 0.2274509804 0.2274509804
0.2392156863 0.2392156863 0.2392156863
0.2549019608 0.2549019608 0.2549019608
0.2627450980 0.2627450980 0.2627450980
0.2745098039 0.2745098039 0.2745098039
0.2862745098 0.2862745098 0.2862745098
0.3019607843 0.3019607843 0.3019607843
0.3098039216 0.3098039216 0.3098039216
0.3215686275 0.3215686275 0.3215686275
0.3333333333 0.3333333333 0.3333333333
0.3411764706 0.3411764706 0.3411764706
0.3490196078 0.3490196078 0.3490196078
0.1411764706 0.1411764706 0.1411764706
0.1372549020 0.1372549020 0.1372549020
0.1372549020 0.1372549020 0.1372549020
0.1411764706 0.1411764706 0.1411764706
0.1411764706 0.1411764706 0.1411764706
0.1411764706 0.1411764706 0.1411764706
0.1450980392 0.1450980392 0.1450980392
0.1490196078 0.1490196078 0.1490196078
0.1490196078 0.1490196078 0.1490196078
0.1529411765 0.1529411765 0.1529411765
0.1568627451 0.1568627451 0.1568627451
0.1607843137 0.1607843137 0.1607843137
0.1647058824 0.1647058824 0.1647058824
0.1725490196 0.1725490196 0.1725490196
0.1803921569 0.1803921569 0.1803921569
0.1882352941 0.1882352941 0.1882352941
0.2000000000 0.2000000000 0.2000000000
0.2078431373 0.2078431373 0.2078431373
0.2196078431 0.2196078431 0.2196078431
0.2274509804 0.2274509804 0.2274509804
0.2352941176 0.2352941176 0.2352941176
0.2470588235 0.2470588235 0.2470588235
0.2588235294 0.2588235294 0.2588235294
0.2705882353 0.2705882353 0.2705882353
0.2823529412 0.2823529412 0.2823529412
0.2941176471 0.2941176471 0.2941176471
0.3058823529 0.3058823529 0.3058823529
0.3215686275 0.3215686275 0.3215686275
0.3294117647 0.3294117647 0.3294117647
0.3411764706 0.3411764706 0.3411764706
0.3529411765 0.3529411765 0.3529411765
0.3647058824 0.3647058824 0.3647058824
0.3725490196 0.3725490196 0.3725490196
0.1529411765 0.1529411765 0.1529411765
0.1529411765 0.1529411765 0.1529411765
0.1529411765 0.1529411765 0.1529411765
0.1568627451 0.1568627451 0.1568627451
0.1568627451 0.1568627451 0.1568627451
0.1568627451 0.1568627451 0.1568627451
0.1607843137 0.1607843137 0.1607843137
0.1607843137 0.1607843137 0.1607843137
0.1647058824 0.1647058824 0.1647058824
0.1686274510 0.1686274510 0.1686274510
0.1725490196 0.1725490196 0.1725490196
0.1725490196 0.1725490196 0.1725490196
0.1803921569 0.1803921569 0.1803921569
0.1843137255 0.1843137255 0.1843137255
0.1921568627 0.1921568627 0.1921568627
0.2000000000 0.2000000000 0.2000000000
0.2117647059 0.2117647059 0.2117647059
0.2235294118 0.2235294118 0.2235294118
0.2313725490 0.2313725490 0.2313725490
0.2431372549 0.2431372549 0.2431372549
0.2509803922 0.2509803922 0.2509803922
0.2627450980 0.2627450980 0.2627450980
0.2705882353 0.2705882353 0.2705882353
0.2862745098 0.2862745098 0.2862745098
0.2980392157 0.2980392157 0.2980392157
0.3098039216 0.3098039216 0.3098039216
0.3215686275 0.3215686275 0.3215686275
0.3411764706 0.3411764706 0.3411764706
0.3490196078 0.3490196078 0.3490196078
0.3647058824 0.3647058824 0.3647058824
0.3764705882 0.3764705882 0.3764705882
0.3882352941 0.3882352941 0.3882352941
0.3960784314 0.3960784314 0.3960784314
0.1725490196 0.1725490196 0.1725490196
0.1725490196 0.1725490196 0.1725490196
0.1725490196 0.1725490196 0.1725490196
0.1764705882 0.1764705882 0.1764705882
0.1764705882 0.1764705882 0.1764705882
0.1764705882 0.1764705882 0.1764705882
0.1764705882 0.1764705882 0.1764705882
0.1803921569 0.1803921569 0.1803921569
0.1803921569 0.1803921569 0.1803921569
0.1843137255 0.1843137255 0.1843137255
0.1882352941 0.1882352941 0.1882352941
0.1921568627 0.1921568627 0.1921568627
0.1960784314 0.1960784314 0.1960784314
0.2000000000 0.2000000000 0.2000000000
0.2039215686 0.2039215686 0.2039215686
0.2156862745 0.2156862745 0.2156862745
0.2274509804 0.2274509804 0.2274509804
0.2352941176 0.2352941176 0.2352941176
0.2470588235 0.2470588235 0.2470588235
0.2588235294 0.2588235294 0.2588235294
0.2705882353 0.2705882353 0.2705882353
0.2823529412 0.2823529412 0.2823529412
0.2901960784 0.2901960784 0.2901960784
0.3058823529 0.3058823529 0.3058823529
0.3176470588 0.3176470588 0.3176470588
0.3294117647 0.3294117647 0.3294117647
0.3450980392 0.3450980392 0.3450980392
0.3647058824 0.3647058824 0.3647058824
0.3764705882 0.3764705882 0.3764705882
0.3882352941 0.3882352941 0.3882352941
0.4000000000 0.4000000000 0.4000000000
0.4117647059 0.4117647059 0.4117647059
0.4196078431 0.4196078431 0.4196078431
0.1882352941 0.1882352941 0.1882352941
0.1921568627 0.1921568627 0.1921568627
0.1921568627 0.1921568627 0.1921568627
0.1921568627 0.1921568627 0.1921568627
0.1921568627 0.1921568627 0.1921568627
0.1921568627 0.1921568627 0.1921568627
0.1960784314 0.1960784314 0.1960784314
0.1960784314 0.1960784314 0.1960784314
0.2000000000 0.2000000000 0.2000000000
0.2039215686 0.2039215686 0.2039215686
0.2078431373 0.2078431373 0.2078431373
0.2078431373 0.2078431373 0.2078431373
0.2117647059 0.2117647059 0.2117647059
0.2156862745 0.2156862745 0.2156862745
0.2235294118 0.2235294118 0.2235294118
0.2274509804 0.2274509804 0.2274509804
0.2352941176 0.2352941176 0.2352941176
0.2509803922 0.2509803922 0.2509803922
0.2627450980 0.2627450980 0.2627450980
0.2745098039 0.2745098039 0.2745098039
0.2823529412 0.2823529412 0.2823529412
0.2980392157 0.2980392157 0.2980392157
0.3098039216 0.3098039216 0.3098039216
0.3254901961 0.3254901961 0.3254901961
0.3372549020 0.3372549020 0.3372549020
0.3529411765 0.3529411765 0.3529411765
0.3647058824 0.3647058824 0.3647058824
0.3843137255 0.3843137255 0.3843137255
0.3960784314 0.3960784314 0.3960784314
0.4117647059 0.4117647059 0.4117647059
0.4235294118 0.4235294118 0.4235294118
0.4313725490 0.4313725490 0.4313725490
0.4470588235 0.4470588235 0.4470588235
0.2156862745 0.2156862745 0.2156862745
0.2117647059 0.2117647059 0.2117647059
0.2117647059 0.2117647059 0.2117647059
0.2117647059 0.2117647059 0.2117647059
0.2156862745 0.2156862745 0.2156862745
0.2156862745 0.2156862745 0.2156862745
0.2196078431 0.2196078431 0.2196078431
0.2196078431 0.2196078431 0.2196078431
0.2196078431 0.2196078431 0.2196078431
0.2274509804 0.2274509804 0.2274509804
0.2313725490 0.2313725490 0.2313725490
0.2313725490 0.2313725490 0.2313725490
0.2352941176 0.2352941176 0.2352941176
0.2431372549 0.2431372549 0.2431372549
0.2470588235 0.2470588235 0.2470588235
0.2509803922 0.2509803922 0.2509803922
0.2588235294 0.2588235294 0.2588235294
0.2666666667 0.2666666667 0.2666666667
0.2823529412 0.2823529412 0.2823529412
0.2941176471 0.2941176471 0.2941176471
0.3058823529 0.3058823529 0.3058823529
0.3176470588 0.3176470588 0.3176470588
0.3333333333 0.3333333333 0.3333333333
0.3490196078 0.3490196078 0.3490196078
0.3647058824 0.3647058824 0.3647058824
0.3764705882 0.3764705882 0.3764705882
0.3921568627 0.3921568627 0.3921568627
0.4156862745 0.4156862745 0.4156862745
0.4274509804 0.4274509804 0.4274509804
0.4431372549 0.4431372549 0.4431372549
0.4509803922 0.4509803922 0.4509803922
0.4627450980 0.4627450980 0.4627450980
0.4745098039 0.4745098039 0.4745098039
0.2313725490 0.2313725490 0.2313725490
0.2313725490 0.2313725490 0.2313725490
0.2313725490 0.2313725490 0.2313725490
0.2313725490 0.2313725490 0.2313725490
0.2352941176 0.2352941176 0.2352941176
0.2352941176 0.2352941176 0.2352941176
0.2352941176 0.2352941176 0.2352941176
0.2392156863 0.2392156863 0.2392156863
0.2392156863 0.2392156863 0.2392156863
0.2470588235 0.2470588235 0.2470588235
0.2470588235 0.2470588235 0.2470588235
0.2509803922 0.2509803922 0.2509803922
0.2549019608 0.2549019608 0.2549019608
0.2627450980 0.2627450980 0.2627450980
0.2666666667 0.2666666667 0.2666666667
0.2705882353 0.2705882353 0.2705882353
0.2784313725 0.2784313725 0.2784313725
0.2862745098 0.2862745098 0.2862745098
0.2941176471 0.2941176471 0.2941176471
0.3098039216 0.3098039216 0.3098039216
0.3215686275 0.3215686275 0.3215686275
0.3372549020 0.3372549020 0.3372549020
0.3490196078 0.3490196078 0.3490196078
0.3686274510 0.3686274510 0.3686274510
0.3843137255 0.3843137255 0.3843137255
0.4000000000 0.4000000000 0.4000000000
0.4156862745 0.4156862745 0.4156862745
0.4352941176 0.4352941176 0.4352941176
0.4509803922 0.4509803922 0.4509803922
0.4705882353 0.4705882353 0.4705882353
0.4823529412 0.4823529412 0.4823529412
0.4901960784 0.4901960784 0.4901960784
0.5019607843 0.5019607843 0.5019607843
0.2549019608 0.2549019608 0.2549019608
0.2549019608 0.2549019608 0.2549019608
0.2549019608 0.2549019608 0.2549019608
0.2588235294 0.2588235294 0.2588235294
0.2549019608 0.2549019608 0.2549019608
0.2588235294 0.2588235294 0.2588235294
0.2627450980 0.2627450980 0.2627450980
0.2627450980 0.2627450980 0.2627450980
0.2666666667 0.2666666667 0.2666666667
0.2705882353 0.2705882353 0.2705882353
0.2705882353 0.2705882353 0.2705882353
0.2745098039 0.2745098039 0.2745098039
0.2784313725 0.2784313725 0.2784313725
0.2823529412 0.2823529412 0.2823529412
0.2862745098 0.2862745098 0.2862745098
0.2901960784 0.2901960784 0.2901960784
0.3019607843 0.3019607843 0.3019607843
0.3098039216 0.3098039216 0.3098039216
0.3137254902 0.3137254902 0.3137254902
0.3294117647 0.3294117647 0.3294117647
0.3372549020 0.3372549020 0.3372549020
