Ferrey/LUTs/B&W.cube
LUT_3D_SIZE 5
0.0000000000 0.0000000000 0.0000000000
0.0431372549 0.0431372549 0.0431372549
0.0980392157 0.0980392157 0.0980392157
0.1607843137 0.1607843137 0.1607843137
0.2352941176 0.2352941176 0.2352941176
0.0862745098 0.0862745098 0.0862745098
0.0980392157 0.0980392157 0.0980392157
0.1529411765 0.1529411765 0.1529411765
0.2196078431 0.2196078431 0.2196078431
0.2980392157 0.2980392157 0.2980392157
0.2156862745 0.2156862745 0.2156862745
0.2196078431 0.2196078431 0.2196078431
0.2588235294 0.2588235294 0.2588235294
0.3647058824 0.3647058824 0.3647058824
0.4745098039 0.4745098039 0.4745098039
0.4509803922 0.4509803922 0.4509803922
0.4627450980 0.4627450980 0.4627450980
0.4941176471 0.4941176471 0.4941176471
0.5725490196 0.5725490196 0.5725490196
0.6862745098 0.6862745098 0.6862745098
0.7137254902 0.7137254902 0.7137254902
0.7254901961 0.7254901961 0.7254901961
0.7490196078 0.7490196078 0.7490196078
0.7803921569 0.7803921569 0.7803921569
0.8196078431 0.8196078431 0.8196078431
0.0588235294 0.0588235294 0.0588235294
0.1098039216 0.1098039216 0.1098039216
0.2235294118 0.2235294118 0.2235294118
0.3254901961 0.3254901961 0.3254901961
0.4313725490 0.4313725490 0.4313725490
0.1568627451 0.1568627451 0.1568627451
0.2000000000 0.2000000000 0.2000000000
0.2549019608 0.2549019608 0.2549019608
0.3372549020 0.3372549020 0.3372549020
0.4313725490 0.4313725490 0.4313725490
0.3333333333 0.3333333333 0.3333333333
0.3450980392 0.3450980392 0.3450980392
0.3882352941 0.3882352941 0.3882352941
0.4901960784 0.4901960784 0.4901960784
0.5921568627 0.5921568627 0.5921568627
0.5725490196 0.5725490196 0.5725490196
0.5803921569 0.5803921569 0.5803921569
0.6078431373 0.6078431373 0.6078431373
0.6627450980 0.6627450980 0.6627450980
0.7450980392 0.7450980392 0.7450980392
0.7607843137 0.7607843137 0.7607843137
0.7647058824 0.7647058824 0.7647058824
0.7803921569 0.7803921569 0.7803921569
0.8039215686 0.8039215686 0.8039215686
0.8313725490 0.8313725490 0.8313725490
0.2078431373 0.2078431373 0.2078431373
0.2431372549 0.2431372549 0.2431372549
0.3490196078 0.3490196078 0.3490196078
0.5058823529 0.5058823529 0.5058823529
0.6274509804 0.6274509804 0.6274509804
0.2862745098 0.2862745098 0.2862745098
0.3215686275 0.3215686275 0.3215686275
0.4000000000 0.4000000000 0.4000000000
0.5215686275 0.5215686275 0.5215686275
0.6196078431 0.6196078431 0.6196078431
0.4901960784 0.4901960784 0.4901960784
0.5137254902 0.5137254902 0.5137254902
0.6039215686 0.6039215686 0.6039215686
0.6705882353 0.6705882353 0.6705882353
0.7254901961 0.7254901961 0.7254901961
0.7137254902 0.7137254902 0.7137254902
0.7254901961 0.7254901961 0.7254901961
0.7450980392 0.7450980392 0.7450980392
0.7686274510 0.7686274510 0.7686274510
0.8078431373 0.8078431373 0.8078431373
0.8156862745 0.8156862745 0.8156862745
0.8156862745 0.8156862745 0.8156862745
0.8235294118 0.8235294118 0.8235294118
0.8352941176 0.8352941176 0.8352941176
0.8549019608 0.8549019608 0.8549019608
0.4823529412 0.4823529412 0.4823529412
0.4862745098 0.4862745098 0.4862745098
0.5803921569 0.5803921569 0.5803921569
0.6705882353 0.6705882353 0.6705882353
0.7568627451 0.7568627451 0.7568627451
0.5254901961 0.5254901961 0.5254901961
0.5254901961 0.5254901961 0.5254901961
0.5882352941 0.5882352941 0.5882352941
0.6627450980 0.6627450980 0.6627450980
0.7490196078 0.7490196078 0.7490196078
0.6823529412 0.6823529412 0.6823529412
0.6745098039 0.6745098039 0.6745098039
0.7254901961 0.7254901961 0.7254901961
0.7647058824 0.7647058824 0.7647058824
0.8078431373 0.8078431373 0.8078431373
0.7882352941 0.7882352941 0.7882352941
0.7843137255 0.7843137255 0.7843137255
0.8039215686 0.8039215686 0.8039215686
0.8352941176 0.8352941176 0.8352941176
0.8549019608 0.8549019608 0.8549019608
0.8509803922 0.8509803922 0.8509803922
0.8470588235 0.8470588235 0.8470588235
0.8549019608 0.8549019608 0.8549019608
0.8627450980 0.8627450980 0.8627450980
0.8745098039 0.8745098039 0.8745098039
0.7686274510 0.7686274510 0.7686274510
0.7607843137 0.7607843137 0.7607843137
0.7803921569 0.7803921569 0.7803921569
0.8039215686 0.8039215686 0.8039215686
0.8352941176 0.8352941176 0.8352941176
0.7725490196 0.7725490196 0.7725490196
0.7686274510 0.7686274510 0.7686274510
0.7803921569 0.7803921569 0.7803921569
0.8000000000 0.8000000000 0.8000000000
0.8274509804 0.8274509804 0.8274509804
0.8196078431 0.8196078431 0.8196078431
0.8156862745 0.8156862745 0.8156862745
0.8274509804 0.8274509804 0.8274509804
0.8352941176 0.8352941176 0.8352941176
0.8509803922 0.8509803922 0.8509803922
0.8509803922 0.8509803922 0.8509803922
0.8431372549 0.8431372549 0.8431372549
0.8549019608 0.8549019608 0.8549019608
0.8666666667 0.8666666667 0.8666666667
0.8745098039 0.8745098039 0.8745098039
0.8784313725 0.8784313725 0.8784313725
0.8784313725 0.8784313725 0.8784313725
0.8784313725 0.8784313725 0.8784313725
0.8862745098 0.8862745098 0.8862745098
0.8941176471 0.8941176471 0.8941176471
