Ferrey/LUTs/F7x.cube
LUT_3D_SIZE 5
0.0392156863 0.0392156863 0.0392156863
0.2549019608 0.0196078431 0.0196078431
0.7176470588 0.0000000000 0.0000000000
0.9372549020 0.0039215686 0.0000000000
0.9921568627 0.0039215686 0.0000000000
0.0000000000 0.3254901961 0.0000000000
0.3137254902 0.3411764706 0.0000000000
0.7098039216 0.3294117647 0.0000000000
0.9411764706 0.2705882353 0.0078431373
0.9960784314 0.2666666667 0.0000000000
0.0000000000 0.6823529412 0.0000000000
0.2470588235 0.6823529412 0.0000000000
0.6392156863 0.6666666667 0.0000000000
0.9058823529 0.6196078431 0.0039215686
0.9960784314 0.5607843137 0.0000000000
0.3372549020 0.8549019608 0.3215686275
0.4235294118 0.8588235294 0.3215686275
0.6117647059 0.8549019608 0.3215686275
0.8313725490 0.8470588235 0.3254901961
0.9960784314 0.8117647059 0.3372549020
0.5019607843 1.0000000000 0.4941176471
0.5490196078 1.0000000000 0.5019607843
0.6549019608 0.9960784314 0.4980392157
0.8000000000 1.0000000000 0.5019607843
0.9882352941 0.9843137255 0.4980392157
0.0000000000 0.0000000000 0.3529411765
0.3098039216 0.0039215686 0.3294117647
0.6784313725 0.0000000000 0.3294117647
0.8901960784 0.1921568627 0.3843137255
0.9960784314 0.3411764706 0.4392156863
0.0000000000 0.3450980392 0.3647058824
0.3137254902 0.3450980392 0.3647058824
0.6862745098 0.3529411765 0.3725490196
0.8941176471 0.4000000000 0.4000000000
1.0000000000 0.4352941176 0.4274509804
0.1294117647 0.6666666667 0.4039215686
0.3686274510 0.6627450980 0.4078431373
0.6392156863 0.6588235294 0.4117647059
0.8666666667 0.6352941176 0.3921568627
1.0000000000 0.6196078431 0.4156862745
0.3843137255 0.8509803922 0.4784313725
0.4588235294 0.8470588235 0.4823529412
0.6235294118 0.8470588235 0.4823529412
0.8235294118 0.8470588235 0.4901960784
1.0000000000 0.8156862745 0.4862745098
0.5215686275 1.0000000000 0.5882352941
0.5607843137 1.0000000000 0.5882352941
0.6627450980 1.0000000000 0.5882352941
0.8000000000 1.0000000000 0.5882352941
0.9803921569 0.9764705882 0.5921568627
0.0000000000 0.0000000000 0.6941176471
0.2431372549 0.0000000000 0.6588235294
0.6196078431 0.0039215686 0.6705882353
0.8823529412 0.2235294118 0.6705882353
0.9921568627 0.4117647059 0.6823529412
0.0000000000 0.3294117647 0.6823529412
0.3333333333 0.3607843137 0.6941176471
0.6470588235 0.3764705882 0.6941176471
0.8666666667 0.4352941176 0.6823529412
1.0000000000 0.4941176471 0.6784313725
0.2039215686 0.6588235294 0.6941176471
0.3960784314 0.6588235294 0.6901960784
0.6274509804 0.6588235294 0.6901960784
0.8274509804 0.6588235294 0.6862745098
1.0000000000 0.6666666667 0.6901960784
0.4000000000 0.8470588235 0.6980392157
0.4784313725 0.8431372549 0.6941176471
0.6313725490 0.8392156863 0.7058823529
0.8078431373 0.8392156863 0.7058823529
1.0000000000 0.8235294118 0.6941176471
0.5450980392 1.0000000000 0.7490196078
0.5882352941 1.0000000000 0.7490196078
0.6823529412 1.0000000000 0.7490196078
0.8117647059 0.9960784314 0.7490196078
0.9725490196 0.9725490196 0.7568627451
0.0000000000 0.0039215686 0.7921568627
0.2470588235 0.0039215686 0.8078431373
0.5725490196 0.1647058824 0.8509803922
0.8156862745 0.2862745098 0.8784313725
1.0000000000 0.4078431373 0.8784313725
0.2313725490 0.3764705882 0.8627450980
0.4000000000 0.3960784314 0.8941176471
0.6196078431 0.4196078431 0.8901960784
0.8274509804 0.4509803922 0.8901960784
0.9960784314 0.4901960784 0.8823529412
0.3411764706 0.6431372549 0.8745098039
0.4431372549 0.6509803922 0.8823529412
0.6274509804 0.6549019608 0.8823529412
0.8078431373 0.6627450980 0.8862745098
0.9960784314 0.6745098039 0.8784313725
0.4039215686 0.8392156863 0.8784313725
0.4862745098 0.8392156863 0.8823529412
0.6392156863 0.8352941176 0.8745098039
0.8039215686 0.8392156863 0.8784313725
0.9686274510 0.8392156863 0.8823529412
0.5372549020 1.0000000000 0.8901960784
0.5921568627 1.0000000000 0.8941176471
0.7019607843 0.9960784314 0.8862745098
0.8274509804 0.9843137255 0.8862745098
0.9568627451 0.9686274510 0.8941176471
0.3450980392 0.2588235294 0.9294117647
0.4431372549 0.2980392157 0.9529411765
0.6117647059 0.3686274510 0.9764705882
0.7764705882 0.4274509804 0.9843137255
0.9686274510 0.4705882353 0.9960784314
0.4274509804 0.4470588235 0.9960784314
0.5019607843 0.4627450980 0.9921568627
0.6431372549 0.4941176471 1.0000000000
0.8039215686 0.5254901961 1.0000000000
0.9764705882 0.5450980392 0.9960784314
0.4784313725 0.6509803922 0.9882352941
0.5411764706 0.6627450980 0.9960784314
0.6627450980 0.6784313725 1.0000000000
0.8078431373 0.6941176471 1.0000000000
0.9686274510 0.6980392157 0.9960784314
0.5607843137 0.8235294118 0.9921568627
0.6078431373 0.8313725490 0.9960784314
0.7019607843 0.8352941176 0.9960784314
0.8274509804 0.8431372549 0.9921568627
0.9607843137 0.8431372549 0.9843137255
0.5921568627 0.9803921569 0.9725490196
0.6431372549 0.9803921569 0.9803921569
0.7333333333 0.9725490196 0.9764705882
0.8666666667 0.9686274510 0.9725490196
0.9568627451 0.9647058824 0.9764705882
